!!!!SEGMENT: pl-kk--kk-i-520_anonim--o-salutaris-hostia.krn
!!!cenid: 17xx:1871
!!!COM: Anonim
!!!COM-rismID: pe30004985
!!!CDT:
!!!CNT:
!!!OTL: O salutaris hostia
!!!PDT:
!!!AGN:
!!!SMS-siglum: PL-Kk
!!!SMS-shelfmark: Kk.I.520
!!!SMS-shelfwork: W
!!!SMS-variant:
!!!SMS-altvar:
!!!NIFC-rismSourceID: 1001140720
!!!NIFC-islandoraID: pl-kk:15064
!!!URL-pdf-islandora: https://repozytorium.nifc.pl/islandora/object/pl-kk%3A15064/datastream/PDF/view
!!!URL-scan: https://polish.musicsources.pl/pl/lokalizacje/galeria/rekopisy/6130 @EN{Scan on Polish Music Sources Website} @PL{Skany w portalu Dziedzictwo Muzyki Polskiej w otwartym dostępie}
!!!ONB-nifc:
!!!AIN: 2 alto 2 bass 2 soprn 2 tenor
!!!key:
**kern	**text	**dynam	**kern	**text	**dynam	**kern	**text	**dynam	**kern	**text	**dynam	**kern	**text	**dynam	**kern	**text	**dynam	**kern	**text	**dynam	**kern	**text	**dynam
*part8	*part8	*part8	*part7	*part7	*part7	*part6	*part6	*part6	*part5	*part5	*part5	*part4	*part4	*part4	*part3	*part3	*part3	*part2	*part2	*part2	*part1	*part1	*part1
*staff8	*staff8	*	*staff7	*staff7	*	*staff6	*staff6	*	*staff5	*staff5	*	*staff4	*staff4	*	*staff3	*staff3	*	*staff2	*staff2	*	*staff1	*staff1	*
*Ibass	*	*	*Itenor	*	*	*Ialto	*	*	*Isoprn	*	*	*Ibass	*	*	*Itenor	*	*	*Ialto	*	*	*Isoprn	*	*
*I"Baſso Accompagnato Coro II.do`	*	*	*I"Tenore Accordato Coro II.do	*	*	*I"Contra Alto Coro II.do`	*	*	*I"Canto di soprano Coro II.do	*	*	*I"Baſso Accompagnato Coro I.mo`	*	*	*I"Tenore Accordato Coro I.mo`	*	*	*I"Contra Alto Coro I.mo'	*	*	*I"Canto di soprano. Coro I.mo`	*	*
*I'Coro B II	*	*	*I'Coro T II	*	*	*I'Coro Contra-A II	*	*	*I'Coro C II	*	*	*I'Coro B I	*	*	*I'Coro T I	*	*	*I'Coro Contra-A I	*	*	*I'Coro C I	*	*
*clefF4	*	*	*clefC4	*	*	*clefC3	*	*	*clefC1	*	*	*clefF4	*	*	*clefC4	*	*	*clefC3	*	*	*clefC1	*	*
*k[]	*	*	*k[]	*	*	*k[]	*	*	*k[]	*	*	*k[]	*	*	*k[]	*	*	*k[]	*	*	*k[]	*	*
*C:	*	*	*C:	*	*	*C:	*	*	*C:	*	*	*C:	*	*	*C:	*	*	*C:	*	*	*C:	*	*
*M3/4	*	*	*M3/4	*	*	*M3/4	*	*	*M3/4	*	*	*M3/4	*	*	*M3/4	*	*	*M3/4	*	*	*M3/4	*	*
=1	=1	=1	=1	=1	=1	=1	=1	=1	=1	=1	=1	=1	=1	=1	=1	=1	=1	=1	=1	=1	=1	=1	=1
*2\right	*	*	*2\right	*	*	*2\right	*	*	*2\right	*	*	*2\right	*	*	*2\right	*	*	*2\right	*	*	*2\right	*	*below
!LO:TX:t=P:problem=fermata nad kropką przedłużającą wartość półnuty	!	!	!LO:TX:t=P:problem=fermata nad kropką przedłużającą wartość półnuty	!	!	!LO:TX:t=P:problem=fermata na kropce przedłużającej wartość półnuty	!	!	!LO:TX:t=P:problem=fermata nad kropką przedłużającą wartość półnuty	!	!	!LO:TX:t=P:problem=fermata nad kropką przedłużającą wartość półnuty	!	!	!LO:TX:t=P:problem=fermata nad kropką przedłużającą wartość półnuty	!	!	!LO:TX:t=P:problem=fermata nad kropką przedłużającą wartość półnuty	!	!	!LO:TX:t=P:problem=fermata nad kropką przedłużającą wartość półnuty	!	!
!LO:TX:a:B:t=Largo dolce.	!	!LO:DY:rj	!LO:TX:a:B:t=Largo dolce.	!	!LO:DY:rj	!LO:TX:a:B:t=Largo dolce	!	!LO:DY:rj	!LO:TX:a:B:t=Largo dolce.	!	!LO:DY:rj	!LO:TX:a:B:t=Largo dolce.	!	!LO:DY:rj:t=fo	!LO:TX:a:B:t=Largo dolce.	!	!LO:DY:rj	!LO:TX:a:B:t=Largo dolce.	!	!LO:DY:rj	!LO:TX:a:B:t=Largo dolce.	!	!LO:DY:rj
2.C;/	O!	fp	2.c;\	O!	fp	2.g;\	O!	fp	2.ee;\	O!	fp	2.C;/	O!	fp	2.c;\	O!	fp	2.g;\	O!	fp	2.ee;\	O!	fp
=2	=2	=2	=2	=2	=2	=2	=2	=2	=2	=2	=2	=2	=2	=2	=2	=2	=2	=2	=2	=2	=2	=2	=2
!	!	!	!LO:TX:t=P:problem=4,8,16\ left, middle or right&colon; global	!	!	!LO:TX:t=P:problem=4,8,16\ left, middle or right&colon; global	!	!	!LO:TX:t=P:problem=4,8,16\ left, middle or right&colon; global	!	!	!	!	!	!	!	!	!LO:TX:t=P:problem=4,8,16\ left, middle or right&colon; global	!	!	!LO:TX:t=P:problem=4,8,16\ left, middle or right&colon; global	!	!
2G\	sa-	.	(4G/	sa-	.	(4e\	sa-	.	(4cc\	sa-	.	2G\	sa-	.	(4G/	sa-	.	(4e\	sa-	.	(4cc\	sa-	.
!	!	!	!	!	!	!	!	!	!	!	!	!	!	!	!LO:TX:t=P:problem=4,8,16\ left, middle or right&colon; global	!	!	!	!	!	!	!	!
.	.	.	4.d\)	.	.	4.d\)	.	.	4.b\)	.	.	.	.	.	4.d\)	.	.	4.d\)	.	.	4.b\)	.	.
4G#X\	-lu-	.	.	.	.	.	.	.	.	.	.	4G#X\	-lu-	.	.	.	.	.	.	.	.	.	.
.	.	.	8B\	-lu-	.	8f\	-lu-	.	8dd\	-lu-	.	.	.	.	8B\	-lu-	.	8f\	-lu-	.	8dd\	-lu-	.
=3	=3	=3	=3	=3	=3	=3	=3	=3	=3	=3	=3	=3	=3	=3	=3	=3	=3	=3	=3	=3	=3	=3	=3
2A\	-ta-	.	2E/	-ta-	.	8.f\L	-ta-	.	8.dd\L	-ta-	.	2A\	-ta-	.	2E/	-ta-	.	8.f\L	-ta-	.	8.dd\L	-ta-	.
.	.	.	.	.	.	16e\Jk	.	.	16cc\Jk	.	.	.	.	.	.	.	.	16e\Jk	.	.	16cc\Jk	.	.
.	.	.	.	.	.	2e\	-ris	.	2cc\	-ris	.	.	.	.	.	.	.	2e\	-ris	.	2cc\	-ris	.
4A\	-ris	.	4E/	-ris	.	.	.	.	.	.	.	4A\	-ris	.	4E/	-ris	.	.	.	.	.	.	.
=4	=4	=4	=4	=4	=4	=4	=4	=4	=4	=4	=4	=4	=4	=4	=4	=4	=4	=4	=4	=4	=4	=4	=4
!	!	!LO:DY:rj:t=fi	!	!	!LO:DY:rj:t=fi	!	!	!LO:DY:rj:t=fi	!	!	!LO:DY:rj:t=fi	!	!	!LO:DY:rj:t=fi	!	!	!LO:DY:rj:t=fi	!	!	!LO:DY:rj:t=fi	!	!	!LO:DY:rj
4F\	O!	f	4A/	O!	f	2a\	O!	f	2ff\	O!	f	4F\	O!	f	4A/	O!	f	2a\	O!	f	2ff\	O!	f
4A\	sa-	.	4c\	sa-	.	.	.	.	.	.	.	4A\	sa-	.	4c\	sa-	.	.	.	.	.	.	.
4F\	-lu-	.	4A/	-lu-	.	8g\	sa-	.	8ee\	sa-	.	4F\	-lu-	.	4A/	-lu-	.	8g\	sa-	.	8ee\	sa-	.
.	.	.	.	.	.	8a\	-lu-	.	8ff\	-lu-	.	.	.	.	.	.	.	8a\	-lu-	.	8ff\	-lu-	.
=5	=5	=5	=5	=5	=5	=5	=5	=5	=5	=5	=5	=5	=5	=5	=5	=5	=5	=5	=5	=5	=5	=5	=5
(4G\	-ta-	.	(4c\	-ta-	.	(4g\	-ta-	.	(4ee\	-ta-	.	(4G\	-ta-	.	(4c\	-ta-	.	(4g\	-ta-	.	(4ee\	-ta-	.
4G#X\)	.	.	4B\)	.	.	4f\)	.	.	4dd\)	.	.	4G#X\)	.	.	4B\)	.	.	4f\)	.	.	4dd\)	.	.
4A\	-ris	.	4A\	-ris	.	4e\	-ris	.	4cc\	-ris	.	4A\	-ris	.	4A\	-ris	.	4e\	-ris	.	4cc\	-ris	.
=6	=6	=6	=6	=6	=6	=6	=6	=6	=6	=6	=6	=6	=6	=6	=6	=6	=6	=6	=6	=6	=6	=6	=6
[2Gn\	Ho-	.	[2G/	Ho-	.	4e\	Ho-	.	(4cc\	Ho-	.	[2Gn\	Ho-	.	[2G/	Ho-	.	4e\	Ho-	.	(4cc\	Ho-	.
.	.	.	.	.	.	(8g\L	.	.	8ee\L	.	.	.	.	.	.	.	.	(8g\L	.	.	8ee\L	.	.
.	.	.	.	.	.	8f\J	.	.	8dd\J)	.	.	.	.	.	.	.	.	8f\J	.	.	8dd\J)	.	.
8G\]	.	.	8G/]	.	.	8e\L	-sti-	.	8cc\L	-sti-	.	8G\]	.	.	8G/]	.	.	8e\L	-sti-	.	8cc\L	-sti-	.
8G\	-sti-	.	8G/	-sti-	.	8d\J)	.	.	8b\J	.	.	8G\	-sti-	.	8G/	-sti-	.	8d\J)	.	.	8b\J	.	.
=7	=7	=7	=7	=7	=7	=7	=7	=7	=7	=7	=7	=7	=7	=7	=7	=7	=7	=7	=7	=7	=7	=7	=7
.	.	.	.	.	.	8qqd/	.	.	8qqb/	.	.	.	.	.	.	.	.	8qqd/	.	.	8qqb/	.	.
2C/	-a	.	2G/	-a!	.	2e\	-a;	.	2cc\	-a.	.	2C/	-a!	.	2G/	-a!	.	2e\	-a;	.	2cc\	-a.	.
4r	.	.	4r	.	.	4r	.	.	4r	.	.	4r	.	.	4r	.	.	4r	.	.	4r	.	.
=8	=8	=8	=8	=8	=8	=8	=8	=8	=8	=8	=8	=8	=8	=8	=8	=8	=8	=8	=8	=8	=8	=8	=8
4A\	Quae	.	4c\	Quae	.	2.r	.	.	2.r	.	.	4A\	Quae	.	4c\	Quae	.	2.r	.	.	2.r	.	.
!	!	!	!	!	!	!	!	!	!	!	!	!LO:LB:g=original	!	!	!	!	!	!	!	!	!	!	!
4G\	Coe-	.	4B\	Coe-	.	.	.	.	.	.	.	4G\	Coe-	.	4B\	Coe-	.	.	.	.	.	.	.
4F\	-li	.	4A\	-li	.	.	.	.	.	.	.	4F\	-li	.	4A\	-li	.	.	.	.	.	.	.
!	!	!	!	!	!	!	!	!	!	!	!	!	!	!	!LO:LB:g=original	!	!	!	!	!	!	!	!
=9	=9	=9	=9	=9	=9	=9	=9	=9	=9	=9	=9	=9	=9	=9	=9	=9	=9	=9	=9	=9	=9	=9	=9
4G\	Quae	.	4G/	Quae	.	4f\	Quae	.	4dd\	Quae	.	4G\	Quae	.	4G/	quae	.	4f\	Quae	.	4dd\	Quae	.
4G\	Coe-	.	4G/	Coe-	.	4e\	Coe-	.	4cc\	Coe-	.	4G\	Coe-	.	4G/	Coe-	.	4e\	Coe-	.	4cc\	Coe-	.
4F\	-li	.	4d\	-li	.	4d\	-li	.	4b\	-li	.	4F\	-li	.	4d\	-li	.	4d\	-li	.	4b\	-li	.
!LO:LB:g=original	!	!	!LO:LB:g=original	!	!	!LO:LB:g=original	!	!	!	!	!	!	!	!	!	!	!	!LO:LB:g=original	!	!	!	!	!
=10	=10	=10	=10	=10	=10	=10	=10	=10	=10	=10	=10	=10	=10	=10	=10	=10	=10	=10	=10	=10	=10	=10	=10
2E\	pan-	.	2C/	pan-	.	2g\	pan-	.	2cc\	pan-	.	2E\	pan-	.	2C/	pan-	.	2g\	pan-	.	2cc\	pan-	.
4F#X\	-dis	.	4D/	-dis	.	4a\	-dis	.	4cc\	-dis	.	4F#X\	-dis	.	4D/	-dis	.	4a\	-dis	.	4cc\	-dis	.
!	!	!	!	!	!	!	!	!	!	!	!	!	!	!	!	!	!	!	!	!	!LO:LB:g=original	!	!
=11	=11	=11	=11	=11	=11	=11	=11	=11	=11	=11	=11	=11	=11	=11	=11	=11	=11	=11	=11	=11	=11	=11	=11
8.G\	ho-	.	8.D/	ho-	.	8.a\	ho-	.	8.b\	ho-	.	8.G\	ho-	.	8.D/	ho-	.	8.a\	ho-	.	8.b\	ho-	.
16G\	-sti-	.	16D/	-sti-	.	16g\	-sti-	.	16b\	-sti-	.	16G\	-sti-	.	16D/	-sti-	.	16g\	-sti-	.	16b\	-sti-	.
!	!	!	!	!	!	!	!	!	!LO:LB:g=original	!	!	!	!	!	!	!	!	!	!	!	!	!	!
2G;\	-um	.	2D;/	-um	.	2g;\	-um.	.	2b;\	-um!	.	2G;\	-um	.	2D;/	-um	.	2g;\	-um;	.	2b;\	-um!	.
=12||	=12||	=12||	=12||	=12||	=12||	=12||	=12||	=12||	=12||	=12||	=12||	=12||	=12||	=12||	=12||	=12||	=12||	=12||	=12||	=12||	=12||	=12||	=12||
!	!	!LO:DY:rj:t=pi	!LO:N:vis=0	!	!	!	!	!	!	!	!	!	!	!LO:DY:rj:t=pi	!LO:N:vis=0	!	!	!	!	!	!	!	!
2G\	bel-	p	1.r	.	.	2b\	Bel-	.	2dd\	Bel-	.	2G\	bel-	p	1.r	.	.	2b\	Bel-	.	2dd\	Bel-	.
4G\	-la	.	.	.	.	8cc\L	-la	.	8ee\L	-la	.	4G\	-la	.	.	.	.	8cc\L	-la	.	8ee\L	-la	.
.	.	.	.	.	.	8a\J	.	.	8cc\J	.	.	.	.	.	.	.	.	8a\J	.	.	8cc\J	.	.
=13	=13	=13	=13	=13	=13	=13	=13	=13	=13	=13	=13	=13	=13	=13	=13	=13	=13	=13	=13	=13	=13	=13	=13
2G\	prae-	.	.	.	.	2g\	prae-	.	2b\	prae-	.	2G\	prae-	.	.	.	.	2g\	prae-	.	2b\	prae-	.
4G\	-munt	.	.	.	.	(16b\LL	-munt	.	(16dd\LL	-munt	.	4G\	-munt	.	.	.	.	(16b\LL	-munt	.	(16dd\LL	-munt	.
.	.	.	.	.	.	16a\JJ	.	.	16cc\JJ	.	.	.	.	.	.	.	.	16a\JJ)	.	.	16cc\JJ	.	.
.	.	.	.	.	.	16g\LL	ho-	.	16b\LL	ho-	.	.	.	.	.	.	.	(16g\LL	ho-	.	16b\LL	ho-	.
.	.	.	.	.	.	16f#X\JJ)	.	.	16a\JJ)	.	.	.	.	.	.	.	.	16f#X\JJ)	.	.	16a\JJ)	.	.
=14	=14	=14	=14	=14	=14	=14	=14	=14	=14	=14	=14	=14	=14	=14	=14	=14	=14	=14	=14	=14	=14	=14	=14
!	!	!LO:DY:t=fi	!	!	!LO:DY:t=fi	!LO:SIC:v:s=8.f#	!	!	!	!	!	!	!	!LO:DY:t=fi	!	!	!LO:DY:rj:t=fi	!LO:SIC:v:s=8.f#	!	!	!	!	!
4r	.	f	4r	.	f	8.f\	-sti-	.	8.a\	-sti-	.	4r	.	f	4r	.	f	8.f\	-sti-	.	8.a\	-sti-	.
.	.	.	.	.	.	16g\	-li-	.	16b\	-li-	.	.	.	.	.	.	.	16g\	-li-	.	16b\	-li-	.
4G\	bel-	.	4G/	bel-	.	2g\	-a	.	2cc\	-a;	.	4G\	bel-	.	4G/	bel-	.	2g\	-a	.	2cc\	-a;	.
4G\	-la	.	4G/	-la	.	.	.	.	.	.	.	4G\	-la	.	4G/	-la	.	.	.	.	.	.	.
=15	=15	=15	=15	=15	=15	=15	=15	=15	=15	=15	=15	=15	=15	=15	=15	=15	=15	=15	=15	=15	=15	=15	=15
2.G\	prae-	.	2.G/	prae-	.	2cc\	bel-	.	2ee\	bel-	.	2.G\	prae-	.	2.G/	prae-	.	2cc\	bel-	.	2ee\	bel-	.
.	.	.	.	.	.	8b\L	-la	.	8dd\L	-la	.	.	.	.	.	.	.	8b\L	-la	.	8dd\L	-la	.
.	.	.	.	.	.	8a\J	.	.	8cc\J	.	.	.	.	.	.	.	.	8a\J	.	.	8cc\J	.	.
!	!	!	!	!	!	!	!	!	!	!	!	!LO:LB:g=original	!	!	!	!	!	!	!	!	!	!	!
=16	=16	=16	=16	=16	=16	=16	=16	=16	=16	=16	=16	=16	=16	=16	=16	=16	=16	=16	=16	=16	=16	=16	=16
2.G\	-munt	.	2.G/	-munt	.	8a\L	prae-	.	8cc\L	prae-	.	2.G\	-munt	.	2.G/	-munt	.	8a\L	prae-	.	8cc\L	prae-	.
.	.	.	.	.	.	8g\J	.	.	8b\J	.	.	.	.	.	.	.	.	8g\J	.	.	8b\J	.	.
.	.	.	.	.	.	2g\	-munt	.	2b\	-munt	.	.	.	.	.	.	.	2g\	-munt	.	2b\	-munt	.
=17	=17	=17	=17	=17	=17	=17	=17	=17	=17	=17	=17	=17	=17	=17	=17	=17	=17	=17	=17	=17	=17	=17	=17
!	!	!	!LO:N:vis=0	!	!	!	!	!	!	!	!	!	!	!	!LO:N:vis=0	!	!	!	!	!	!	!	!
2.r	.	.	1.r	.	.	[4e\	bel-	.	[4cc\	bel-	.	2.r	.	.	1.r	.	.	[4e\	bel-	.	[4cc\	bel-	.
.	.	.	.	.	.	16e\LL]	.	.	16cc\LL]	.	.	.	.	.	.	.	.	16e\LL]	.	.	16cc\LL]	.	.
.	.	.	.	.	.	16d\	.	.	16b\	.	.	.	.	.	.	.	.	16d\	.	.	16b\	.	.
.	.	.	.	.	.	16e\	.	.	16cc\	.	.	.	.	.	.	.	.	16e\	.	.	16cc\	.	.
.	.	.	.	.	.	16f\JJ	.	.	16dd\JJ	.	.	.	.	.	.	.	.	16f\JJ	.	.	16dd\JJ	.	.
.	.	.	.	.	.	8g\	.	.	8ee\	.	.	.	.	.	.	.	.	8g\	.	.	8ee\	.	.
.	.	.	.	.	.	8g\	-la	.	8ee\	-la	.	.	.	.	.	.	.	8g\	-la	.	8ee\	-la	.
!	!	!	!	!	!	!LO:LB:g=original	!	!	!	!	!	!	!	!	!	!	!	!LO:LB:g=original	!	!	!	!	!
=18	=18	=18	=18	=18	=18	=18	=18	=18	=18	=18	=18	=18	=18	=18	=18	=18	=18	=18	=18	=18	=18	=18	=18
2D/	prae-	.	.	.	.	(4f#X\	prae-	.	(4dd\	prae-	.	2D/	prae-	.	.	.	.	(4f#X\	prae-	.	(4dd\	prae-	.
.	.	.	.	.	.	4a\)	.	.	4cc\)	.	.	.	.	.	.	.	.	4a\)	.	.	4cc\)	.	.
4E\	-munt	.	.	.	.	4g\	-munt	.	4b\	-munt	.	4E\	-munt	.	.	.	.	4g\	-munt	.	4b\	-munt	.
!	!	!	!	!	!	!	!	!	!	!	!	!	!	!	!	!	!	!	!	!	!LO:LB:g=original	!	!
=19	=19	=19	=19	=19	=19	=19	=19	=19	=19	=19	=19	=19	=19	=19	=19	=19	=19	=19	=19	=19	=19	=19	=19
4r	.	.	4r	.	.	8f#X\L	ho-	.	8cc\L	ho-	.	4r	.	.	4r	.	.	(8f#X\L	ho-	.	8cc\L	ho-	.
.	.	.	.	.	.	8g\J	.	.	8b\J	.	.	.	.	.	.	.	.	8g\J)	.	.	8b\J	.	.
4D/	ho-	.	4c\	ho-	.	(4g\	-sti-	.	(4b\	-sti-	.	4D/	ho-	.	4c\	ho-	.	(4g\	-sti-	.	(4b\	-sti-	.
8.D/	-sti-	.	8.c\	-sti-	.	8.f#\)	.	.	8.a\)	.	.	8.D/	-sti-	.	8.c\	-sti-	.	8.f#\)	.	.	8.a\)	.	.
16D/	-li-	.	16c\	-li-	.	16f#\	-li-	.	16a\	-li-	.	16D/	-li-	.	16c\	-li-	.	16f#\	-li-	.	16a\	-li-	.
!	!	!	!	!	!	!	!	!	!	!	!	!	!	!	!LO:LB:g=original	!	!	!	!	!	!	!	!
=20	=20	=20	=20	=20	=20	=20	=20	=20	=20	=20	=20	=20	=20	=20	=20	=20	=20	=20	=20	=20	=20	=20	=20
4GG/	-a	.	4B\	-a	.	4g\	-a	.	4g/	-a	.	4GG/	-a	.	4B\	-a	.	4g\	-a	.	4g/	-a	.
!LO:LB:g=original	!	!	!	!	!	!	!	!	!LO:LB:g=original	!	!	!	!	!	!	!	!	!	!	!	!	!	!
4r	.	.	4r	.	.	4d\	bel-	.	4b\	bel-	.	4r	.	.	4r	.	.	4d\	bel-	.	4b\	bel-	.
4r	.	.	4r	.	.	4fn\	-la	.	4dd\	-la	.	4r	.	.	4r	.	.	4fn\	-la	.	4dd\	-la	.
=21	=21	=21	=21	=21	=21	=21	=21	=21	=21	=21	=21	=21	=21	=21	=21	=21	=21	=21	=21	=21	=21	=21	=21
!	!	!LO:DY:rj:t=fi	!	!	!LO:DY:t=fi	!	!	!	!	!	!	!	!	!LO:DY:rj:t=fi	!	!	!LO:DY:rj:t=fi	!	!	!	!	!	!
4r	.	f	4r	.	f	4f\	prae-	.	4dd\	prae-	.	4r	.	f	4r	.	f	4f\	prae-	.	4dd\	prae-	.
(8c\L	Bel-	.	8e\L	bel-	.	[<2e\	.	.	[<2cc\	.	.	(8c\L	Bel-	.	(8e\L	bel-	.	[2e\	.	.	[2cc\	.	.
8B\J	.	.	(8d\J	.	.	.	.	.	.	.	.	8B\J	.	.	8d\J	.	.	.	.	.	.	.	.
8A\L	-la	.	8c\L	-la	.	.	.	.	.	.	.	8A\L	-la	.	8c\L	-la	.	.	.	.	.	.	.
8G\J)	.	.	8B\J)	.	.	.	.	.	.	.	.	8G\J)	.	.	8B\J)	.	.	.	.	.	.	.	.
=22	=22	=22	=22	=22	=22	=22	=22	=22	=22	=22	=22	=22	=22	=22	=22	=22	=22	=22	=22	=22	=22	=22	=22
(8F#X\L	prae-	.	4A/	prae-	.	4e\]	.	.	4cc\]	.	.	8F#X\L	prae-	.	4A/	prae-	.	4e\]	.	.	4cc\]	.	.
8D\	.	.	.	.	.	.	.	.	.	.	.	(8D\	.	.	.	.	.	.	.	.	.	.	.
!	!	!	!LO:LB:g=original	!	!	!	!	!	!	!	!	!	!	!	!	!	!	!	!	!	!	!	!
8G\	.	.	(4B\	.	.	2d\	.	.	[<2b\	.	.	8G\	.	.	(4B\	.	.	2d\	.	.	[2b\	.	.
8A\	.	.	.	.	.	.	.	.	.	.	.	8A\	.	.	.	.	.	.	.	.	.	.	.
8B\)	.	.	4d\	.	.	.	.	.	.	.	.	8B\	.	.	4d\	.	.	.	.	.	.	.	.
8G\J	.	.	.	.	.	.	.	.	.	.	.	8G\J)	.	.	.	.	.	.	.	.	.	.	.
=23	=23	=23	=23	=23	=23	=23	=23	=23	=23	=23	=23	=23	=23	=23	=23	=23	=23	=23	=23	=23	=23	=23	=23
!	!	!	!	!	!	!LO:TX:t=P:problem=skreślony takt	!	!	!	!	!	!	!	!	!	!	!	!	!	!	!	!	!
(8E\L	.	.	4c\	.	.	2.c/	.	.	4b\]	.	.	8E\L	.	.	4c\	.	.	2.c/	.	.	4b\]	.	.
8G\	.	.	.	.	.	.	.	.	.	.	.	(8G\	.	.	.	.	.	.	.	.	.	.	.
8F#X\	.	.	4A\	.	.	.	.	.	2a\	.	.	8F#X\	.	.	4A\	.	.	.	.	.	2a\	.	.
8A\	.	.	.	.	.	.	.	.	.	.	.	8A\	.	.	.	.	.	.	.	.	.	.	.
8D\	.	.	4c\)	.	.	.	.	.	.	.	.	8D\	.	.	4c\)	.	.	.	.	.	.	.	.
8F#\J)	.	.	.	.	.	.	.	.	.	.	.	8F#\J)	.	.	.	.	.	.	.	.	.	.	.
!	!	!	!	!	!	!	!	!	!	!	!	!LO:LB:g=original	!	!	!	!	!	!	!	!	!	!	!
=24	=24	=24	=24	=24	=24	=24	=24	=24	=24	=24	=24	=24	=24	=24	=24	=24	=24	=24	=24	=24	=24	=24	=24
4G\	-munt	.	4B\	-munt	.	4d\	-munt	.	4b\	-munt	.	4G\	-munt!	.	4B\	-munt	.	4d\	-munt	.	4b\	-munt	.
!	!	!	!	!	!	!	!	!	!	!	!LO:DY:t=fi	!	!	!	!	!	!	!	!	!	!	!	!
.	.	.	.	.	.	.	.	.	.	.	f	.	.	.	.	.	.	.	.	.	.	.	f
4r	.	.	4r	.	.	4r	.	.	4g/	bel-	.	4r	.	.	4r	.	.	4r	.	.	4g\	bel-	.
4r	.	.	4r	.	.	4r	.	.	4g/	-la	.	4r	.	.	4r	.	.	4r	.	.	4g\	-la	.
=25	=25	=25	=25	=25	=25	=25	=25	=25	=25	=25	=25	=25	=25	=25	=25	=25	=25	=25	=25	=25	=25	=25	=25
2.r	.	.	2.r	.	.	8B/L	prae-	.	(8g\L	prae-	.	2.r	.	.	2.r	.	.	8B/L	prae-	.	(8g\L	prae-	.
.	.	.	.	.	.	(8c/	.	.	8a\	.	.	.	.	.	.	.	.	(8c/	.	.	8a\	.	.
.	.	.	.	.	.	8d/	.	.	8b\	.	.	.	.	.	.	.	.	8d/	.	.	8b\	.	.
.	.	.	.	.	.	8e/J)	.	.	8cc\J	.	.	.	.	.	.	.	.	8e/J)	.	.	8cc\J	.	.
!	!	!	!	!	!	!LO:LB:g=original	!	!	!	!	!	!	!	!	!	!	!	!	!	!	!	!	!
.	.	.	.	.	.	8f#X\L	-munt	.	8dd\L	-munt	.	.	.	.	.	.	.	(8f#X\L	-munt	.	8dd\L	-munt	.
.	.	.	.	.	.	8g\J	.	.	8ee\J)	.	.	.	.	.	.	.	.	8g\J)	.	.	8ee\J)	.	.
!	!	!	!	!	!	!	!	!	!	!	!	!	!	!	!	!	!	!LO:LB:g=original	!	!	!	!	!
=26	=26	=26	=26	=26	=26	=26	=26	=26	=26	=26	=26	=26	=26	=26	=26	=26	=26	=26	=26	=26	=26	=26	=26
4r	.	.	4r	.	.	(16fn\LL	ho-	.	(16dd/LL	ho-	.	4r	.	.	4r	.	.	(16fn\LL	ho-	.	(16dd/LL	ho-	.
.	.	.	.	.	.	16e\	.	.	16cc/	.	.	.	.	.	.	.	.	16e\	.	.	16cc/	.	.
.	.	.	.	.	.	16d\	.	.	16b/	.	.	.	.	.	.	.	.	16d\	.	.	16b/	.	.
.	.	.	.	.	.	16c\JJ)	.	.	16a/JJ)	.	.	.	.	.	.	.	.	16c\JJ)	.	.	16a/JJ)	.	.
8r	.	.	8r	.	.	(4B/	-sti-	.	(4g/	-sti-	.	8r	.	.	8r	.	.	(4B/	-sti-	.	4g/	-sti-	.
8C/	ho-	.	8G/	ho-	.	.	.	.	.	.	.	8C/	ho-	.	8G/	ho-	.	.	.	.	.	.	.
8.D/	-sti-	.	8.A/	-sti-	.	8.c/)	.	.	8.f#X/)	.	.	8.D/	-sti-	.	8.A/	-sti-	.	8.c/)	.	.	8.f#X/	.	.
16D/	-li-	.	16A/	-li-	.	16c/	-li-	.	16f#/	-li-	.	16D/	-li-	.	16A/	-li-	.	16c/	-li-	.	16f#/	-li-	.
=27	=27	=27	=27	=27	=27	=27	=27	=27	=27	=27	=27	=27	=27	=27	=27	=27	=27	=27	=27	=27	=27	=27	=27
4GG/	-a	.	4D/	-a	.	4B/	-a	.	4g/	-a	.	4GG/	-a	.	4D/	-a!	.	4B/	-a	.	4g/	-a	.
!	!	!	!	!	!	!	!	!LO:DY:t=fi	!	!	!LO:DY:t=fi	!	!	!	!	!	!	!	!	!LO:DY:t=fi	!LO:LB:g=original	!	!
.	.	.	.	.	.	.	.	f	.	.	f	.	.	.	.	.	.	.	.	f	.	.	f
4r	.	.	4r	.	.	4d\	da	.	4b\	da	.	4r	.	.	4r	.	.	4d\	da	.	4b\	da	.
4r	.	.	4r	.	.	4fn\	ro-	.	4dd\	ro-	.	4r	.	.	4r	.	.	4fn\	ro-	.	4dd\	ro-	.
!	!	!LO:DY:t=ffi	!	!	!	!	!	!	!	!	!	!	!	!LO:DY:rj:t=ffi	!	!	!	!	!	!	!	!	!
.	.	ff	.	.	.	.	.	.	.	.	.	.	.	ff	.	.	.	.	.	.	.	.	.
!	!	!	!	!	!	!	!	!	!	!	!	!	!	!	!LO:LB:g=original	!	!	!	!	!	!	!	!
=28	=28	=28	=28	=28	=28	=28	=28	=28	=28	=28	=28	=28	=28	=28	=28	=28	=28	=28	=28	=28	=28	=28	=28
8r	.	.	8r	.	.	2d\	-bur	.	2b\	-bur	.	8r	.	.	8r	.	.	2d\	-bur	.	2b\	-bur	.
8GG/	da	.	8B\	da	.	.	.	.	.	.	.	8GG/	da	.	8B\	da	.	.	.	.	.	.	.
8Fn\	ro-	.	8B\	ro-	.	.	.	.	.	.	.	8Fn\	ro-	.	8B\	ro-	.	.	.	.	.	.	.
8F\	-bur	.	8B\	-bur	.	.	.	.	.	.	.	8F\	-bur	.	8B\	-bur	.	.	.	.	.	.	.
!LO:LB:g=original	!	!	!	!	!	!	!	!	!LO:LB:g=original	!	!	!	!	!	!	!	!	!	!	!	!	!	!
8C/	fer	.	8G/	fer	.	8c\	fer	.	8ee\	fer	.	8C/	fer	.	8G/	fer	.	8c\	fer	.	8ee\	fer	.
8C/	Au-	.	8G/	Au-	.	8e\	Au-	.	8cc\	Au-	.	8C/	Au-	.	8G/	Au-	.	8e\	Au-	.	8cc\	Au-	.
=29	=29	=29	=29	=29	=29	=29	=29	=29	=29	=29	=29	=29	=29	=29	=29	=29	=29	=29	=29	=29	=29	=29	=29
[2D/	-xi-	.	(4G/	-xi-	.	(4d\	-xi-	.	(4b\	-xi-	.	[2D/	-xi-	.	(4G/	-xi-	.	(4d\	-xi-	.	(4b\	-xi-	.
!	!	!	!LO:LB:g=original	!	!	!	!	!	!	!	!	!	!	!	!	!	!	!	!	!	!	!	!
!	!	!	!LO:TX:b:t=P:problem=brak zakończenia łuku	!	!	!	!	!	!	!	!	!	!	!	!	!	!	!	!	!	!	!	!
.	.	.	4.F#X/)	.	.	4.c\)	.	.	4.a\)	.	.	.	.	.	4.F#X/)	.	.	4.c\)	.	.	4.a\)	.	.
8.D/]	.	.	.	.	.	.	.	.	.	.	.	8.D/]	.	.	.	.	.	.	.	.	.	.	.
.	.	.	8F#/	-li-	.	8c\	-li-	.	8a\	-li-	.	.	.	.	8F#/	-li-	.	8c\	-li-	.	8a\	-li-	.
16D/	-li-	.	.	.	.	.	.	.	.	.	.	16D/	-li-	.	.	.	.	.	.	.	.	.	.
!	!	!	!	!	!	!	!	!	!	!	!	!LO:LB:g=original	!	!	!	!	!	!	!	!	!	!	!
=30	=30	=30	=30	=30	=30	=30	=30	=30	=30	=30	=30	=30	=30	=30	=30	=30	=30	=30	=30	=30	=30	=30	=30
!LO:TX:t=P:problem=fermata pod kropką przedłużającą wartość półnuty	!	!	!LO:TX:t=P:problem=fermata nad kropką przedłużającą wartość półnuty	!	!	!LO:TX:t=P:problem=fermata nad kropką przedłużającą wartość półnuty	!	!	!LO:TX:t=P:problem=fermata nad kropką przedłużającą wartość półnuty	!	!	!LO:TX:t=P:problem=fermata nad kropką przedłużającą wartość półnuty	!	!	!LO:TX:t=P:problem=fermata nad kropką przedłużającą wartość półnuty	!	!	!LO:TX:t=P:problem=fermata nad kropką przedłużającą wartość półnuty	!	!	!LO:TX:t=P:problem=fermata nad kropką przedłużającą wartość półnuty	!	!
2.GG;</	-um	.	2.G;/	-um	.	2.d;\	-um.	.	2.b;\	-um	.	2.GG;/	-um	.	2.G;/	-um	.	2.d;\	-um	.	2.b;\	-um	.
=31||	=31||	=31||	=31||	=31||	=31||	=31||	=31||	=31||	=31||	=31||	=31||	=31||	=31||	=31||	=31||	=31||	=31||	=31||	=31||	=31||	=31||	=31||	=31||
!	!	!LO:DY:rj	!	!	!	!	!	!LO:DY:rj	!	!	!	!	!	!LO:DY:rj	!	!	!	!	!	!LO:DY:rj	!	!	!
4G\	O!	fp	4BB/	O!	.	4d\	O!	fp	4d/	O!	.	4G\	O!	fp	4BB/	O!	.	4d\	O!	fp	4d/	O!	.
4G\	sa-	.	4BB/	sa-	.	4g\	sa-	.	4d/	sa-	.	4G\	sa-	.	4BB/	sa-	.	4g\	sa-	.	4d/	sa-	.
4G\	-lu-	.	4BB/	-lu-	.	4g\	-lu-	.	4d/	-lu-	.	4G\	-lu-	.	4BB/	-lu-	.	4g\	-lu-	.	4d/	-lu-	.
=32	=32	=32	=32	=32	=32	=32	=32	=32	=32	=32	=32	=32	=32	=32	=32	=32	=32	=32	=32	=32	=32	=32	=32
2G\	-ta-	.	8BB/L	-ta-	.	(8g\L	-ta-	.	(4d/	-ta-	.	2G\	-ta-	.	8BB/L	-ta-	.	(8g\L	-ta-	.	(4d/	-ta-	.
.	.	.	8D/J	.	.	8fn\J)	.	.	.	.	.	.	.	.	8D/J	.	.	8fn\J)	.	.	.	.	.
.	.	.	2D/	-ris	.	2f\	-ris	.	4fn/)	.	.	.	.	.	2D/	-ris	.	2f\	-ris	.	4fn/)	.	.
4G#X\	-ris	.	.	.	.	.	.	.	4f/	-ris	.	4G#X\	-ris	.	.	.	.	.	.	.	4f/	-ris	.
!	!	!LO:DY:t=ffi	!	!	!	!	!	!	!	!	!	!	!	!LO:DY:rj:t=ffi	!	!	!	!	!	!	!	!	!
.	.	ff	.	.	.	.	.	.	.	.	.	.	.	ff	.	.	.	.	.	.	.	.	.
!	!	!	!	!	!	!LO:LB:g=original	!	!	!	!	!	!	!	!	!	!	!	!LO:LB:g=original	!	!	!	!	!
=33	=33	=33	=33	=33	=33	=33	=33	=33	=33	=33	=33	=33	=33	=33	=33	=33	=33	=33	=33	=33	=33	=33	=33
4A\	O!	.	2.r	.	.	4f\	O!	.	4cc\	O!	.	4A\	O!	.	2.r	.	.	4f\	O!	.	4cc\	O!	.
4A\	sa-	.	.	.	.	4f\	sa-	.	4cc\	sa-	.	4A\	sa-	.	.	.	.	4f\	sa-	.	4cc\	sa-	.
4A\	-lu-	.	.	.	.	4f\	-lu-	.	4cc\	-lu-	.	4A\	-lu-	.	.	.	.	4f\	-lu-	.	4cc\	-lu-	.
=34	=34	=34	=34	=34	=34	=34	=34	=34	=34	=34	=34	=34	=34	=34	=34	=34	=34	=34	=34	=34	=34	=34	=34
2G#X\	-ta-	.	4.Fn/	ta-	.	(4.d\	-ta-	.	2b\	-ta-	.	2G#X\	-ta-	.	[4.Fn/	ta-	.	(4.d\	-ta-	.	2b\	-ta-	.
.	.	.	8F/	.	.	8f\)	.	.	.	.	.	.	.	.	8F/]	.	.	8f\)	.	.	.	.	.
!	!	!	!	!	!	!	!	!	!	!	!	!	!	!	!LO:LB:g=original	!	!	!	!	!	!	!	!
[4G#\	-ris	.	8E/L	-ris	.	(8e\L	-ris	.	4b\	-ris	.	[4G#\	-ris	.	8E/L	-ris	.	(8e\L	-ris	.	4b\	-ris	.
.	.	.	8F/J	.	.	8d\J)	.	.	.	.	.	.	.	.	8F/J	.	.	8d\J)	.	.	.	.	.
=35	=35	=35	=35	=35	=35	=35	=35	=35	=35	=35	=35	=35	=35	=35	=35	=35	=35	=35	=35	=35	=35	=35	=35
8.G#\]	ho-	.	8.d\	ho-	.	4r	.	.	8.b\	Ho-	.	8.G#\]	ho-	.	8.d\	ho-	.	4r	.	.	8.b\	Ho-	.
16A\	-sti-	.	16c\	-sti-	.	.	.	.	16a\	-sti-	.	16A\	-sti-	.	16c\	-sti-	.	.	.	.	16a\	-sti-	.
!	!	!	!	!	!	!	!	!	!	!	!	!	!	!	!	!	!	!	!	!	!LO:LB:g=original	!	!
8A\	-a	.	8c\	-a	.	8r	.	.	8a\	-a	.	8A\	-a	.	8c\	-a!	.	8r	.	.	8g\	-a	.
8r	.	.	8r	.	.	8cc\	Quae	.	8ee\	quae	.	8r	.	.	8r	.	.	8cc\	Quae	.	8ee\	quae	.
4r	.	.	4r	.	.	8b\	Coe-	.	8dd\	Coe-	.	4r	.	.	4r	.	.	8b\	Coe-	.	8dd\	Coe-	.
.	.	.	.	.	.	8a\	-li	.	8cc\	-li	.	.	.	.	.	.	.	8a\	-li	.	8cc\	-li	.
!	!	!	!	!	!	!	!	!	!LO:LB:g=original	!	!	!	!	!	!	!	!	!	!	!	!	!	!
=36	=36	=36	=36	=36	=36	=36	=36	=36	=36	=36	=36	=36	=36	=36	=36	=36	=36	=36	=36	=36	=36	=36	=36
2E\	pan-	.	2e\	pan-	.	4.g#X\	pan-	.	(4.b\	pan-	.	2E\	pan-	.	2e\	pan-	.	4.g#X\	pan-	.	(4.b\	pan-	.
.	.	.	.	.	.	8a\	.	.	8cc\)	.	.	.	.	.	.	.	.	8a\	.	.	8cc\)	.	.
.	.	.	.	.	.	16qqcc/	.	.	16qqee/	.	.	.	.	.	.	.	.	16qqcc/	.	.	16qqee/	.	.
4E\	-dis	.	4e\	-dis	.	8b\	.	.	8dd\	.	.	4E\	-dis	.	4e\	-dis	.	8b\	.	.	8dd\	.	.
.	.	.	.	.	.	(16a\LL	-dis	.	(16cc\LL	-dis	.	.	.	.	.	.	.	(16a\LL	-dis	.	(16cc\LL	-dis	.
.	.	.	.	.	.	16g#\JJ)	.	.	16b\JJ)	.	.	.	.	.	.	.	.	16g#\JJ)	.	.	16b\JJ)	.	.
!LO:LB:g=original	!	!	!	!	!	!	!	!	!	!	!	!LO:LB:g=original	!	!	!	!	!	!	!	!	!	!	!
=37	=37	=37	=37	=37	=37	=37	=37	=37	=37	=37	=37	=37	=37	=37	=37	=37	=37	=37	=37	=37	=37	=37	=37
(<4AA/	pan-	.	(4.A\	pan-	.	(4.a\	pan-	.	(4.cc\	pan-	.	(4AA/	pan-	.	(4.A\	pan-	.	(4.a\	pan-	.	(4.cc\	pan-	.
4A\)	.	.	.	.	.	.	.	.	.	.	.	4A\)	.	.	.	.	.	.	.	.	.	.	.
.	.	.	8B\)	.	.	8e\)	.	.	8dd\)	.	.	.	.	.	8B\)	.	.	8e\)	.	.	8dd\)	.	.
!	!	!	!LO:LB:g=original	!	!	!	!	!	!	!	!	!	!	!	!	!	!	!	!	!	!	!	!
.	.	.	16qqd/	.	.	.	.	.	16qqff/	.	.	.	.	.	16qqd/	.	.	.	.	.	16qqff/	.	.
4A\	-dis	.	8c\	.	.	4a\	-dis	.	8ee\	.	.	4A\	-dis	.	8c\	.	.	4a\	-dis	.	8ee\	.	.
.	.	.	(16B\LL	-dis	.	.	.	.	(16dd\LL	-dis	.	.	.	.	(16B\LL	-dis	.	.	.	.	(16dd\LL	-dis	.
.	.	.	16A\JJ)	.	.	.	.	.	16cc\JJ)	.	.	.	.	.	16A\JJ)	.	.	.	.	.	16cc\JJ)	.	.
=38	=38	=38	=38	=38	=38	=38	=38	=38	=38	=38	=38	=38	=38	=38	=38	=38	=38	=38	=38	=38	=38	=38	=38
8.E\	ho-	.	8.e\	ho-	.	8.a\	ho-	.	8.cc\	ho-	.	8.E\	ho-	.	8.e\	ho-	.	8.a\	ho-	.	8.cc\	ho-	.
16E\	-sti-	.	16e\	-sti-	.	16g#X\	-sti-	.	16b\	-sti-	.	16E\	-sti-	.	16e\	-sti-	.	16g#X\	-sti-	.	16b\	-sti-	.
!	!	!	!LO:TX:t=P:problem=kreska taktowa podwójna	!	!	!	!	!	!	!	!	!	!	!	!LO:TX:t=P:problem=kreska taktowa podwójna	!	!	!	!	!	!	!	!
2E\	-um	.	2e\	-um	.	2g#\	-um	.	2b\	-um	.	2E\	-um	.	2e\	-um	.	2g#\	-um	.	2b\	-um	.
=39	=39	=39	=39	=39	=39	=39	=39	=39	=39	=39	=39	=39	=39	=39	=39	=39	=39	=39	=39	=39	=39	=39	=39
!	!	!LO:DY:rj:t=pi	!	!	!	!	!	!LO:DY:rj:t=pi	!LO:N:vis=0	!	!	!	!	!LO:DY:rj:t=pi	!	!	!	!	!	!LO:DY:rj:t=pi:problem=w poprzedniej pięciolinii	!LO:N:vis=0	!	!
2.c\	bel-	p	4.E/	bel-	.	(4.cc\	bel-	p	1.r	.	.	2.c\	bel-	p	4.E/	bel-	.	(4.cc\	bel-	p	1.r	.	.
.	.	.	8F/	.	.	8dd\)	.	.	.	.	.	.	.	.	(8F/	.	.	8dd\)	.	.	.	.	.
!	!	!	!	!	!	!LO:LB:g=original	!	!	!	!	!	!	!	!	!	!	!	!	!	!	!	!	!
.	.	.	8E/L	.	.	8cc\L	.	.	.	.	.	.	.	.	8E/L	.	.	8cc\L	.	.	.	.	.
.	.	.	8D/J	.	.	8b\J	.	.	.	.	.	.	.	.	8D/J)	.	.	8b\J	.	.	.	.	.
=40	=40	=40	=40	=40	=40	=40	=40	=40	=40	=40	=40	=40	=40	=40	=40	=40	=40	=40	=40	=40	=40	=40	=40
2F\	.	.	8F/L	.	.	(8a\L	.	.	.	.	.	2F\	.	.	(8F/L	.	.	(8a\L	.	.	.	.	.
.	.	.	8E/	.	.	8g\	.	.	.	.	.	.	.	.	8E/J)	.	.	8g\	.	.	.	.	.
!	!	!	!	!	!	!	!	!	!	!	!	!	!	!	!LO:LB:g=original	!	!	!	!	!	!	!	!
.	.	.	8F/	.	.	8a\	.	.	.	.	.	.	.	.	(8F/L	.	.	8a\	.	.	.	.	.
.	.	.	8G/J	.	.	8b\J)	.	.	.	.	.	.	.	.	8G/J)	.	.	8b\J)	.	.	.	.	.
4G\	-la	.	8A/L	-la	.	(8cc\L	-la	.	.	.	.	4G\	-la	.	8A/L	-la	.	(8cc\L	-la	.	.	.	.
.	.	.	8G/J	.	.	8b\J)	.	.	.	.	.	.	.	.	8G/J	.	.	8b\J)	.	.	.	.	.
=41	=41	=41	=41	=41	=41	=41	=41	=41	=41	=41	=41	=41	=41	=41	=41	=41	=41	=41	=41	=41	=41	=41	=41
!	!	!LO:DY:rj:t=fi&colon;	!LO:N:vis=0	!	!	!	!	!	!	!	!	!	!	!LO:DY:rj:t=fi	!LO:N:vis=0	!	!	!	!	!	!	!	!
4C/	bel-	f	1.r	.	.	(4.e\	bel-	.	(4.cc\	bel-	.	4C/	bel-	f	1.r	.	.	(4.e\	bel-	.	(4.cc\	bel-	.
2c\	.	.	.	.	.	.	.	.	.	.	.	2c\	.	.	.	.	.	.	.	.	.	.	.
.	.	.	.	.	.	8f\L	.	.	8dd\L	.	.	.	.	.	.	.	.	8f\L	.	.	8dd\L	.	.
.	.	.	.	.	.	8e\	.	.	8cc\	.	.	.	.	.	.	.	.	8e\	.	.	8cc\	.	.
.	.	.	.	.	.	8d\J)	.	.	8b\J)	.	.	.	.	.	.	.	.	8d\J)	.	.	8b\J)	.	.
=42	=42	=42	=42	=42	=42	=42	=42	=42	=42	=42	=42	=42	=42	=42	=42	=42	=42	=42	=42	=42	=42	=42	=42
4D/	.	.	.	.	.	(8f\L	.	.	(8a\L	.	.	4D/	.	.	.	.	.	8f\L	.	.	(8a\L	.	.
.	.	.	.	.	.	8e\	.	.	8g\	.	.	.	.	.	.	.	.	(8e\	.	.	8g\	.	.
4GG/	.	.	.	.	.	8f\	.	.	8a\	.	.	4GG/	.	.	.	.	.	8f\	.	.	8a\	.	.
.	.	.	.	.	.	8d\J)	.	.	8b\J)	.	.	.	.	.	.	.	.	8d\J)	.	.	8b\J	.	.
4C/	-la	.	.	.	.	(8e\L	-la	.	(8cc\L	-la	.	4C/	-la	.	.	.	.	(8e\L	-la	.	8cc\L	-la	.
.	.	.	.	.	.	8f\J)	.	.	8dd\J)	.	.	.	.	.	.	.	.	8f\J)	.	.	8dd\J)	.	.
!	!	!	!	!	!	!	!	!	!	!	!	!	!	!	!	!	!	!	!	!	!LO:LB:g=original	!	!
=43	=43	=43	=43	=43	=43	=43	=43	=43	=43	=43	=43	=43	=43	=43	=43	=43	=43	=43	=43	=43	=43	=43	=43
!	!	!	!	!	!LO:DY:rj:t=fi	!LO:N:vis=0	!	!	!	!	!	!	!	!	!	!	!LO:DY:rj:t=fi	!LO:N:vis=0	!	!	!	!	!
4c\	bel-	.	(4.c\	bel-	f	1.r	.	.	4.ee\	bel-	.	4c\	bel-	.	(4.c\	bel-	f	1.r	.	.	(4.ee\	bel-	.
!	!	!	!	!	!	!	!	!	!	!	!	!LO:N:vis=4.	!	!	!	!	!	!	!	!	!	!	!
4c\	-la	.	.	.	.	.	.	.	.	.	.	4c\	-la	.	.	.	.	.	.	.	.	.	.
.	.	.	8d\L	.	.	.	.	.	(8ff\L	.	.	.	.	.	8d\L	.	.	.	.	.	8ff\L	.	.
4r	.	.	8c\	.	.	.	.	.	8ee\	.	.	4r	.	.	8c\	.	.	.	.	.	8ee\	.	.
.	.	.	8B\J)	.	.	.	.	.	8dd\J)	.	.	.	.	.	8B\J)	.	.	.	.	.	8dd\J)	.	.
!	!	!	!	!	!	!	!	!	!LO:LB:g=original	!	!	!	!	!	!	!	!	!	!	!	!	!	!
=44	=44	=44	=44	=44	=44	=44	=44	=44	=44	=44	=44	=44	=44	=44	=44	=44	=44	=44	=44	=44	=44	=44	=44
2.r	.	.	(8A/L	.	.	.	.	.	8cc\L	.	.	2.r	.	.	(8A/L	.	.	.	.	.	(8cc\L	.	.
.	.	.	8G/	.	.	.	.	.	(8b\	.	.	.	.	.	8G/	.	.	.	.	.	8b\	.	.
.	.	.	8F/	.	.	.	.	.	8a\	.	.	.	.	.	8F/	.	.	.	.	.	8a\	.	.
.	.	.	8E/J)	.	.	.	.	.	8g\J)	.	.	.	.	.	8E/J)	.	.	.	.	.	8g\J)	.	.
.	.	.	8D/L	-la	.	.	.	.	(8f/L	-la	.	.	.	.	8D/L	-la	.	.	.	.	(8f/L	-la	.
.	.	.	8C/J	.	.	.	.	.	8e/J)	.	.	.	.	.	8C/J	.	.	.	.	.	8e/J)	.	.
=45	=45	=45	=45	=45	=45	=45	=45	=45	=45	=45	=45	=45	=45	=45	=45	=45	=45	=45	=45	=45	=45	=45	=45
(4GG/	prae-	.	4F/	prae-	.	4f\	prae-	.	4d/	prae-	.	(>4GG/	prae-	.	4F/	prae-	.	4f\	prae-	.	4d/	prae-	.
4D\	.	.	(4G/	.	.	2b\	.	.	2dd\	.	.	4D/)	.	.	(4G/	.	.	2b\	.	.	2dd\	.	.
4G\)	.	.	4B/)	.	.	.	.	.	.	.	.	4G\	.	.	4B/)	.	.	.	.	.	.	.	.
!	!	!	!LO:LB:g=original	!	!	!	!	!	!	!	!	!	!	!	!	!	!	!	!	!	!	!	!
=46	=46	=46	=46	=46	=46	=46	=46	=46	=46	=46	=46	=46	=46	=46	=46	=46	=46	=46	=46	=46	=46	=46	=46
4C/	-munt	.	4c\	-munt	.	4e\	-munt	.	4g\	-munt	.	4C/	-munt	.	4c\	-munt	.	4e\	-munt	.	4g\	-munt	.
!	!	!	!	!	!	!	!	!	!	!	!LO:DY:t=fi	!	!	!	!	!	!	!	!	!	!	!	!
.	.	.	.	.	.	.	.	.	.	.	f	.	.	.	.	.	.	.	.	.	.	.	f
!LO:LB:g=original	!	!	!	!	!	!	!	!	!	!	!	!LO:PB:g=original	!	!	!	!	!	!	!	!	!	!	!
4r	.	.	4r	.	.	4r	.	.	16cc\LL	bel-	.	4r	.	.	4r	.	.	4r	.	.	(16cc\LL	bel-	.
.	.	.	.	.	.	.	.	.	(16b\	.	.	.	.	.	.	.	.	.	.	.	16b\	.	.
.	.	.	.	.	.	.	.	.	16cc\	.	.	.	.	.	.	.	.	.	.	.	16cc\	.	.
.	.	.	.	.	.	.	.	.	16dd\JJ)	.	.	.	.	.	.	.	.	.	.	.	16dd\JJ	.	.
4r	.	.	4r	.	.	4r	.	.	16ee\LL	.	.	4r	.	.	4r	.	.	4r	.	.	16ee\LL	.	.
.	.	.	.	.	.	.	.	.	(16dd\	.	.	.	.	.	.	.	.	.	.	.	16dd\	.	.
!	!	!	!	!	!LO:DY:t=fi	!	!	!	!	!	!	!	!	!	!	!	!	!	!	!	!	!	!
.	.	.	.	.	f	.	.	.	16ee\	.	.	.	.	.	.	.	.	.	.	.	16ee\	.	.
.	.	.	.	.	.	.	.	.	16ff\JJ)	.	.	.	.	.	.	.	.	.	.	.	16ff\JJ)	.	.
!	!	!	!	!	!	!	!	!	!	!	!	!	!	!	!	!	!	!LO:PB:g=original	!	!	!	!	!
=47	=47	=47	=47	=47	=47	=47	=47	=47	=47	=47	=47	=47	=47	=47	=47	=47	=47	=47	=47	=47	=47	=47	=47
!	!	!	!	!	!	!	!	!	!	!	!	!	!	!	!	!	!LO:DY:rj:t=fi	!	!	!	!	!	!
2.r	.	.	4e\	bel-	.	2.r	.	.	4gg\	.	.	2.r	.	.	4e\	bel-	f	2.r	.	.	4gg\	.	.
.	.	.	(8d\L	.	.	.	.	.	8ff\L	.	.	.	.	.	8d\L	.	.	.	.	.	8ff\L	.	.
.	.	.	8c\J	.	.	.	.	.	8ee\J	.	.	.	.	.	8c\J	.	.	.	.	.	8ee\J	.	.
.	.	.	8B-X\L	-la	.	.	.	.	8dd\L	-la	.	.	.	.	8B-X\L	-la	.	.	.	.	8dd\L	-la	.
.	.	.	8A\J)	.	.	.	.	.	8cc\J	.	.	.	.	.	8A\J	.	.	.	.	.	8cc\J	.	.
!	!	!	!	!	!	!	!	!	!	!	!	!	!	!	!LO:PB:g=original	!	!	!	!	!	!	!	!
=48	=48	=48	=48	=48	=48	=48	=48	=48	=48	=48	=48	=48	=48	=48	=48	=48	=48	=48	=48	=48	=48	=48	=48
2.C/	prae-	.	(8G/L	prae-	.	8e\L	prae-	.	2.b-X\	prae-	.	2.C/	prae-	.	8G/L	prae-	.	8e\L	prae-	.	2.b-X\	prae-	.
.	.	.	8A/J	.	.	(8f\	.	.	.	.	.	.	.	.	(8A/	.	.	(8f\	.	.	.	.	.
.	.	.	8B-X/L	.	.	8g\	.	.	.	.	.	.	.	.	8B-X/	.	.	8g\	.	.	.	.	.
.	.	.	8A/	.	.	8f\	.	.	.	.	.	.	.	.	8A/	.	.	8f\	.	.	.	.	.
.	.	.	8B-/)	.	.	8g\)	.	.	.	.	.	.	.	.	8B-/	.	.	8g\	.	.	.	.	.
.	.	.	8G/J	.	.	8e\J	.	.	.	.	.	.	.	.	8G/J)	.	.	8e\J)	.	.	.	.	.
!	!	!	!	!	!	!LO:PB:g=original	!	!	!	!	!	!	!	!	!	!	!	!	!	!	!	!	!
=49	=49	=49	=49	=49	=49	=49	=49	=49	=49	=49	=49	=49	=49	=49	=49	=49	=49	=49	=49	=49	=49	=49	=49
4F\	-munt	.	4A/	-munt	.	4f\	-munt	.	4a\	-munt	.	4F\	-munt	.	4A/	-munt	.	4f\	-munt	.	4a\	-munt	.
[2D/	prae-	.	4r	.	.	(8a\L	prae-	.	(8ff\L	prae-	.	[2D/	prae-	.	4r	.	.	8a\L	prae-	.	8ff\L	prae-	.
.	.	.	.	.	.	8g\J	.	.	8ee\	.	.	.	.	.	.	.	.	(8g\	.	.	8ee\	.	.
.	.	.	4r	.	.	8f\L	.	.	8dd\	.	.	.	.	.	4r	.	.	8f\	.	.	8dd\	.	.
.	.	.	.	.	.	8e\J)	.	.	8cc\J	.	.	.	.	.	.	.	.	8e\J)	.	.	8cc\J	.	.
=50	=50	=50	=50	=50	=50	=50	=50	=50	=50	=50	=50	=50	=50	=50	=50	=50	=50	=50	=50	=50	=50	=50	=50
4D/]	.	.	4c\	prae-	.	4f#X\	.	.	4a\)	.	.	4D/]	.	.	4c\	prae-	.	4f#X\	.	.	4a\	.	.
4D/	-munt	.	4c\	-munt	.	4f#\	-munt	.	4a\	-munt	.	4D/	-munt	.	4c\	-munt	.	4f#\	-munt	.	4a\	-munt	.
!	!	!	!	!	!	!	!	!	!LO:PB:g=original	!	!	!	!	!	!	!	!	!	!	!	!	!	!
4D/	ho-	.	4c\	ho-	.	4f#\	ho-	.	4a\	ho-	.	4D/	ho-	.	4c\	ho-	.	4f#\	ho-	.	4a\	ho-	.
!	!	!	!	!	!	!	!	!	!	!	!	!	!	!	!	!	!	!	!	!	!LO:PB:g=original	!	!
=51	=51	=51	=51	=51	=51	=51	=51	=51	=51	=51	=51	=51	=51	=51	=51	=51	=51	=51	=51	=51	=51	=51	=51
4.G\	-sti-	.	4.d\	-sti-	.	4.g\	-sti-	.	4.b\	-sti-	.	4.G\	-sti-	.	4.d\	-sti-	.	4.g\	-sti-	.	4.b\	-sti-	.
8D/	-li-	.	8d\	-li-	.	8a\	-li-	.	8cc\	-li-	.	8D/	-li-	.	8d\	-li-	.	8a\	-li-	.	8cc\	-li-	.
4GG;</	-a	.	4d;\	-a;	.	4g;\	-a.	.	4b;\	-a.	.	4GG;/	-a	.	4d;\	-a!	.	4g;\	-a	.	4b;\	-a.	.
=52||	=52||	=52||	=52||	=52||	=52||	=52||	=52||	=52||	=52||	=52||	=52||	=52||	=52||	=52||	=52||	=52||	=52||	=52||	=52||	=52||	=52||	=52||	=52||
!	!	!LO:DY:rj:t=fi	!	!	!	!	!	!LO:DY:rj:t=fi	!	!	!	!	!	!LO:DY:rj:t=fi	!	!	!	!	!	!LO:DY:rj:t=fi	!	!	!
4F\	da	f	2.r	.	.	4a\	da	f	2.r	.	.	4F\	da	f	2.r	.	.	4a\	da	f	2.r	.	.
8qqE/	.	.	.	.	.	8qqg/	.	.	.	.	.	8qqE/	.	.	.	.	.	8qqg/	.	.	.	.	.
4D\	ro-	.	.	.	.	4f\	ro-	.	.	.	.	4D/	ro-	.	.	.	.	4f\	ro-	.	.	.	.
8qqC/	.	.	.	.	.	8qqe/	.	.	.	.	.	8qqC/	.	.	.	.	.	8qqe/	.	.	.	.	.
4BB/	-bur	.	.	.	.	4d\	-bur	.	.	.	.	4BB/	-bur	.	.	.	.	4d\	-bur	.	.	.	.
=53	=53	=53	=53	=53	=53	=53	=53	=53	=53	=53	=53	=53	=53	=53	=53	=53	=53	=53	=53	=53	=53	=53	=53
(4G\	fe-	.	2G/	fe-	.	(2d\	fer	.	2b\	fe-	.	(4G\	fe-	.	2G/	fer	.	(2d\	fer	.	2b\	fe-	.
4F\	.	.	.	.	.	.	.	.	.	.	.	4F\)	.	.	.	.	.	.	.	.	.	.	.
4E\)	-r	.	4G/	-r	.	4e\)	.	.	4cc\	-r	.	4E\	-r	.	4G/	.	.	4e\)	.	.	4cc\	-r	.
!	!	!	!LO:PB:g=original	!	!	!	!	!	!	!	!	!	!	!	!	!	!	!	!	!	!	!	!
=54	=54	=54	=54	=54	=54	=54	=54	=54	=54	=54	=54	=54	=54	=54	=54	=54	=54	=54	=54	=54	=54	=54	=54
4F\	Au-	.	4D/	Au-	.	4f\	Au-	.	4a\	Au-	.	4F\	Au-	.	4D/	Au-	.	4f\	Au-	.	4a\	Au-	.
*custos:C	*	*	*	*	*	*	*	*	*	*	*	*	*	*	*	*	*	*custos:d	*	*	*	*	*
!LO:TX:t=P:problem=wszystkie custos użyte jako łamanie pięciolinii	!	!	!	!	!	!	!	!	!	!	!	!	!	!	!	!	!	!LO:TX:t=P:problem=wszystkie custos użyte jako łamanie pięciolinii	!	!	!	!	!
!LO:PB:g=original	!	!	!	!	!	!	!	!	!	!	!	!	!	!	!	!	!	!LO:LB:g=original	!	!	!	!	!
4.G\	-xi-	.	4.c\	-xi-	.	4.e\	-xi-	.	4.g/	-xi-	.	4.G\	-xi-	.	4.c\	-xi-	.	4.e\	-xi-	.	4.g/	-xi-	.
8G#X\	-li-	.	8B\	-li-	.	8d\	-li-	.	8f/	-li-	.	8G#X\	-li-	.	8B\	-li-	.	8d\	-li-	.	8f/	-li-	.
=55	=55	=55	=55	=55	=55	=55	=55	=55	=55	=55	=55	=55	=55	=55	=55	=55	=55	=55	=55	=55	=55	=55	=55
2A\	-um	.	2c\	-um	.	2a\	-um	.	2e/	-um	.	2A\	-um	.	2c\	-um	.	2a\	-um	.	2e/	-um	.
!	!	!	!	!	!	!	!	!	!	!	!	!LO:LB:g=original	!	!LO:DY:t=fi	!	!	!	!	!	!	!	!	!
4r	.	.	4r	.	.	4r	.	.	4r	.	.	4r	.	f	4r	.	.	4r	.	.	4r	.	.
!	!	!	!	!	!	!LO:LB:g=original	!	!	!	!	!	!	!	!	!	!	!	!	!	!	!	!	!
=56	=56	=56	=56	=56	=56	=56	=56	=56	=56	=56	=56	=56	=56	=56	=56	=56	=56	=56	=56	=56	=56	=56	=56
!	!	!LO:DY:rj:t=fi	!LO:N:vis=0	!	!	!	!	!	!	!	!	!	!	!	!LO:N:vis=0	!	!	!	!	!	!	!	!
4F\	da-	f	1.r	.	.	2.r	.	.	2.r	.	.	4F\	da-	.	1.r	.	.	2.r	.	.	2.r	.	.
!	!	!	!	!	!	!	!	!LO:DY:t=fi	!	!	!	!	!	!	!	!	!	!	!	!LO:DY:t=fi	!	!	!
4A\	-ro-	.	.	.	.	.	.	f	.	.	.	4A\	-ro-	.	.	.	.	.	.	f	.	.	.
4c\	-bur	.	.	.	.	.	.	.	.	.	.	4c\	-bur	.	.	.	.	.	.	.	.	.	.
=57	=57	=57	=57	=57	=57	=57	=57	=57	=57	=57	=57	=57	=57	=57	=57	=57	=57	=57	=57	=57	=57	=57	=57
2.F\	fer	.	.	.	.	4f\	da	.	4a\	da	.	2.F\	fer	.	.	.	.	4f\	da	.	4a\	da	.
.	.	.	.	.	.	4a\	ro-	.	4cc\	ro-	.	.	.	.	.	.	.	4a\	ro-	.	4cc\	ro-	.
.	.	.	.	.	.	4a\	-bur	.	4ff\	-bur	.	.	.	.	.	.	.	4a\	-bur	.	4ff\	-bur	.
=58	=58	=58	=58	=58	=58	=58	=58	=58	=58	=58	=58	=58	=58	=58	=58	=58	=58	=58	=58	=58	=58	=58	=58
!	!	!LO:DY:rj:t=ffi	!	!	!	!	!	!	!	!	!	!	!	!LO:DY:rj:t=fi	!	!	!	!	!	!	!	!	!
4.F\	fer	ff	2.r	.	.	4.a\	fer	.	4.ff\	fer	.	4.F\	fer	f	2.r	.	.	4.a\	fer	.	4.ff\	fer	.
8F\	Au-	.	.	.	.	8a\	Au-	.	8cc\	Au-	.	8F\	Au-	.	.	.	.	8a\	Au-	.	8cc\	Au-	.
!	!	!	!	!	!	!	!	!	!LO:LB:g=original	!	!	!	!	!	!	!	!	!	!	!	!	!	!
8E\	-xi-	.	.	.	.	(16g\LL	-xi-	.	(16b-X\LL	-xi-	.	8E\	-xi-	.	.	.	.	(16g\LL	-xi-	.	(16b-X\LL	-xi-	.
.	.	.	.	.	.	16f\JJ)	.	.	16a\JJ)	.	.	.	.	.	.	.	.	16f\JJ	.	.	16a\JJ)	.	.
8F\	-li-	.	.	.	.	(16e\LL	-li-	.	(16g/LL	-li-	.	8F\	-li-	.	.	.	.	16e\LL	-li-	.	(16g/LL	-li-	.
.	.	.	.	.	.	16d\JJ)	.	.	16f/JJ)	.	.	.	.	.	.	.	.	16d\JJ)	.	.	16f/JJ)	.	.
!	!	!	!	!	!	!	!	!	!	!	!	!	!	!	!	!	!	!	!	!	!LO:LB:g=original	!	!
=59	=59	=59	=59	=59	=59	=59	=59	=59	=59	=59	=59	=59	=59	=59	=59	=59	=59	=59	=59	=59	=59	=59	=59
!	!	!	!	!	!	!	!	!LO:DY:rj	!	!	!LO:DY:rj	!	!	!	!	!	!	!	!	!	!	!	!LO:DY:rj
2C/	-um	.	4r	.	.	2e\	-um	fp	2cc\	-um	fp	2C/	-um	.	4r	.	.	2e\	-um	.	2cc\	-um	fp
!	!	!LO:DY:t=fi	!	!	!	!	!	!LO:DY:t=fi	!	!	!	!	!	!LO:DY:t=fi	!LO:LB:g=original	!	!	!	!	!LO:DY:t=fi	!	!	!
.	.	f	4r	.	.	.	.	f	.	.	f	.	.	f	4r	.	.	.	.	f	.	.	f
4C/	da	.	4G/	da	.	8.e\L	da	.	(8.cc\L	da	.	4C/	da	.	4G/	da	.	8.e\L	da	.	(8.cc\L	da	.
.	.	.	.	.	.	16f\Jk	.	.	16dd\Jk)	.	.	.	.	.	.	.	.	16f\Jk	.	.	16dd\Jk)	.	.
=60	=60	=60	=60	=60	=60	=60	=60	=60	=60	=60	=60	=60	=60	=60	=60	=60	=60	=60	=60	=60	=60	=60	=60
!	!	!LO:DY:rj:t=pi	!	!	!	!	!	!LO:DY:rj:t=pi	!	!	!LO:DY:rj:t=pi	!	!	!LO:DY:rj:t=pi	!	!	!	!	!	!LO:DY:rj:t=pi	!	!	!LO:DY:rj
2.C/	ro-	p	2.G/	ro-	.	2f\	ro-	p	2dd\	ro-	p	2.C/	ro-	p	2.G/	ro-	.	2f\	ro-	p	2dd\	ro-	p
!	!	!	!	!	!	!	!	!LO:DY:t=fi	!	!	!LO:DY:rj:t=fi	!	!	!	!	!	!	!	!	!LO:DY:t=fi	!	!	!
.	.	.	.	.	.	.	.	f	.	.	f	.	.	.	.	.	.	.	.	f	.	.	f
.	.	.	.	.	.	8.f\L	.	.	(8.dd\L	.	.	.	.	.	.	.	.	8.f\L	.	.	(8.dd\L	.	.
.	.	.	.	.	.	16g\Jk	.	.	16ee\Jk)	.	.	.	.	.	.	.	.	16g\Jk	.	.	16ee\Jk)	.	.
=61	=61	=61	=61	=61	=61	=61	=61	=61	=61	=61	=61	=61	=61	=61	=61	=61	=61	=61	=61	=61	=61	=61	=61
4.C/	-bur	.	4.G/	-bur	.	4.g\	-bur	.	4.ee\	-bur	.	4.C/	-bur	.	4.G/	-bur	.	4.g\	-bur	.	4.ee\	-bur	.
!	!	!LO:DY:t=fi	!	!	!LO:DY:t=fi	!	!	!LO:DY:rj:t=ffi	!	!	!LO:DY:t=fi	!	!	!LO:DY:t=fi	!	!	!LO:DY:t=fi	!	!	!LO:DY:t=fi	!	!	!
.	.	f	.	.	f	.	.	ff	.	.	f	.	.	f	.	.	f	.	.	f	.	.	f
8C/	da	.	8G/	da	.	8e\	da	.	8cc\	da	.	8C/	da	.	8G/	da	.	8e\	da	.	8cc\	da	.
!LO:LB:g=original	!	!	!	!	!	!	!	!	!	!	!	!	!	!	!	!	!	!LO:LB:g=original	!	!	!	!	!
8C/	ro-	.	8B\	ro-	.	8f\	ro-	.	8dd\	ro-	.	8C/	ro-	.	8B\	ro-	.	8f\	ro-	.	8dd\	ro-	.
8C/	-bur	.	8c\	-bur	.	8g\	-bur	.	8ee\	-bur	.	8C/	-bur	.	8c\	-bur	.	8g\	-bur	.	8ee\	-bur	.
!	!	!	!	!	!	!	!	!	!	!	!	!LO:LB:g=original	!	!	!	!	!	!	!	!	!	!	!
=62	=62	=62	=62	=62	=62	=62	=62	=62	=62	=62	=62	=62	=62	=62	=62	=62	=62	=62	=62	=62	=62	=62	=62
2F;\	fer	.	2d;\	fer	.	2a;\	fer	.	2ff;\	fer	.	2F;\	fer	.	2d;\	fer	.	2a;\	fer	.	2ff;\	fer	.
!	!	!	!	!	!	!LO:LB:g=original	!	!	!	!	!	!	!	!	!	!	!	!	!	!	!	!	!
4F\	Au-	.	4d\	Au-	.	8f\L	Au-	.	8dd\L	Au-	.	4F\	Au-	.	4d\	Au-	.	8f\L	Au-	.	8dd\L	Au-	.
.	.	.	.	.	.	16a\L	.	.	16ff\L	.	.	.	.	.	.	.	.	16a\L	.	.	16ff\L	.	.
.	.	.	.	.	.	16f\JJ	.	.	16dd\JJ	.	.	.	.	.	.	.	.	16f\JJ	.	.	16dd\JJ	.	.
=63	=63	=63	=63	=63	=63	=63	=63	=63	=63	=63	=63	=63	=63	=63	=63	=63	=63	=63	=63	=63	=63	=63	=63
2.G\	-xi-	.	2.G/	-xi-	.	2.e\	-xi-	.	2.cc\	-xi-	.	2.G\	-xi-	.	2.G/	-xi-	.	2.e\	-xi-	.	2.cc\	-xi-	.
!	!	!	!LO:LB:g=original	!	!	!	!	!	!LO:LB:g=original	!	!	!	!	!	!	!	!	!	!	!	!	!	!
=64	=64	=64	=64	=64	=64	=64	=64	=64	=64	=64	=64	=64	=64	=64	=64	=64	=64	=64	=64	=64	=64	=64	=64
!	!	!	!	!	!	!LO:N:vis=2.	!	!	!	!	!	!	!	!	!	!	!	!LO:N:vis=2.	!	!	!	!	!
!LO:N:vis=2.	!	!	!LO:N:vis=2.	!	!	!LO:TX:a:B:t=t	!	!	!	!	!	!LO:N:vis=2.	!	!	!LO:N:vis=2.	!	!	!LO:TX:a:B:t=t	!	!	!	!	!
2G\	.	.	2G/	.	.	2d\	.	.	4b\	.	.	2G\	.	.	2G/	.	.	2d\	.	.	4b\	.	.
!	!	!	!	!	!	!	!	!	!LO:N:vis=4.	!	!	!	!	!	!	!	!	!	!	!	!LO:N:vis=4.	!	!
!	!	!	!	!	!	!	!	!	!LO:TX:a:B:t=t	!	!	!	!	!	!	!	!	!	!	!	!LO:TX:a:B:t=t	!	!
.	.	.	.	.	.	.	.	.	4..b\	.	.	.	.	.	.	.	.	.	.	.	4..b\	.	.
!LO:N:vis=16	!	!	!LO:N:vis=16	!	!	!LO:N:vis=16	!	!	!	!	!	!LO:N:vis=16	!	!	!LO:N:vis=16	!	!	!LO:N:vis=16	!	!	!	!	!
4G\	-li-	.	4G/	-li-	.	4e\	-li-	.	.	.	.	4G\	-li-	.	4G/	-li-	.	4e\	-li-	.	.	.	.
.	.	.	.	.	.	.	.	.	16cc\	-li-	.	.	.	.	.	.	.	.	.	.	16cc\	-li-	.
=65	=65	=65	=65	=65	=65	=65	=65	=65	=65	=65	=65	=65	=65	=65	=65	=65	=65	=65	=65	=65	=65	=65	=65
!LO:TX:t=P:problem=fermata nad kropką przedłużającą wartość półnuty	!	!	!LO:TX:t=P:problem=fermata nad kropką przedłużającą wartość półnuty	!	!	!LO:TX:t=P:problem=fermata nad kropką przedłużającą wartość półnuty	!	!	!LO:TX:t=P:problem=fermata nad kropką przedłużającą wartość półnuty	!	!	!LO:TX:t=P:problem=fermata nad kropką przedłużającą wartość półnuty	!	!	!LO:TX:t=P:problem=fermata nad kropką przedłużającą wartość półnuty	!	!	!LO:TX:t=P:problem=fermata nad kropką przedłużającą wartość półnuty	!	!	!LO:TX:t=P:problem=fermata nad kropką przedłużającą wartość półnuty	!	!
2.C;/	-um.	.	2.G;/	-um	.	2.e;\	-um.	.	2.cc;\	-um	.	2.C;/	-um.	.	2.G;/	-um	.	2.e;\	-um	.	2.cc;\	-um	.
==	==	==	==	==	==	==	==	==	==	==	==	==	==	==	==	==	==	==	==	==	==	==	==
*-	*-	*-	*-	*-	*-	*-	*-	*-	*-	*-	*-	*-	*-	*-	*-	*-	*-	*-	*-	*-	*-	*-	*-
!!!system-decoration: [(s1,s2,s3,s4)][(s5,s6,s7,s8)]
!!!RDF**kern: > = above
!!!RDF**kern: < = below
!!!ENC: Marta Lawrence
!!!END: 2021-01-16
!!!ENC: Andrzej Kubiczek
!!!END: 2021-01-11
